X: 4
T: The Pigeon On The Gate
R: reel
M: 4/4
L: 1/8
K: Edor
|BE~E2 EdcA|BEBc dBAF|D3D BDFE|DE(3FGA BAFA|BE~E2 EdcA|B2~B2 dBAF|DEFA dDfe|dBAF E3A||BE~E2 EdcA|BEBc dBAF|D3D (3DDD FE|DE (3FGA BAFA|BE~E2 EdcA|BEBc dBAF|DEFA dDfe|dBAF E3A|:Beed efed|(3Bcd ef gfec|Bddc d3B|~A2FA DEFA|B2~B2 efed|(3Bcd ef ~g3^g|afge f2ec|dBAF E4:|


Tune 517	Setting 13448

